;FLAVOR:Marlin
;TIME:1520
;Filament used: 1.06985m
;Layer height: 0.28
;MINX:94.967
;MINY:98.612
;MINZ:0.28
;MAXX:140.029
;MAXY:146.369
;MAXZ:10.08
;Generated with Cura_SteamEngine 4.13.1
M140 S80
M105
M190 S80
M104 S240
M105
M109 S240
M82 ;absolute extrusion mode
; Ender 3 Custom Start G-code
G92 E0 ; Reset Extruder
G28 ; Home all axes
G1 Z2.0 F3000 ; Move Z Axis up little to prevent scratching of Heat Bed
G1 X0.1 Y20 Z0.3 F5000.0 ; Move to start position
G1 X0.1 Y200.0 Z0.3 F1500.0 E15 ; Draw the first line
G1 X0.4 Y200.0 Z0.3 F5000.0 ; Move to side a little
G1 X0.4 Y20 Z0.3 F1500.0 E30 ; Draw the second line
G92 E0 ; Reset Extruder
G1 Z2.0 F3000 ; Move Z Axis up little to prevent scratching of Heat Bed
G1 X5 Y20 Z0.3 F5000.0 ; Move over to prevent blob squish
G92 E0
G92 E0
G1 F2700 E-5
;LAYER_COUNT:36
;LAYER:0
M107
G0 F6000 X98.163 Y101.911 Z0.28
;TYPE:SKIRT
G1 F2700 E0
G1 F1200 X98.851 Y101.274 E0.04366
G1 X99.591 Y100.697 E0.08735
G1 X100.377 Y100.186 E0.13101
G1 X101.204 Y99.743 E0.17469
G1 X102.065 Y99.373 E0.21833
G1 X102.955 Y99.077 E0.262
G1 X103.867 Y98.858 E0.30568
G1 X104.795 Y98.718 E0.34938
G1 X105.731 Y98.657 E0.39305
G1 X106.765 Y98.634 E0.44121
G1 X106.995 Y98.631 E0.45192
G1 X120.952 Y98.612 E1.10182
G1 X125.381 Y98.612 E1.30805
G1 X126.238 Y98.623 E1.34796
G1 X127.174 Y98.676 E1.39162
G1 X128.103 Y98.809 E1.43532
G1 X129.017 Y99.021 E1.47901
G1 X129.909 Y99.31 E1.52267
G1 X130.773 Y99.673 E1.5663
G1 X131.604 Y100.109 E1.61
G1 X132.394 Y100.614 E1.65366
G1 X133.139 Y101.185 E1.69737
G1 X133.832 Y101.816 E1.74101
G1 X134.468 Y102.505 E1.78467
G1 X135.044 Y103.245 E1.82834
G1 X135.555 Y104.032 E1.87203
G1 X135.996 Y104.859 E1.91567
G1 X136.366 Y105.721 E1.95935
G1 X136.691 Y106.771 E2.01053
G1 X136.702 Y106.768 E2.01106
G1 X137.415 Y109.352 E2.13588
G1 X138.145 Y111.729 E2.25167
G1 X139.029 Y114.337 E2.37989
G1 X139.386 Y115.34 E2.42947
G1 X139.662 Y116.236 E2.47312
G1 X139.861 Y117.153 E2.51682
G1 X139.982 Y118.083 E2.56049
G1 X140.018 Y118.712 E2.58982
G1 X140.026 Y118.992 E2.60287
G1 X140.029 Y119.451 E2.62424
G1 X140.022 Y119.981 E2.64892
G1 X139.97 Y120.918 E2.69262
G1 X139.838 Y121.846 E2.73627
G1 X139.627 Y122.76 E2.77994
G1 X139.34 Y123.653 E2.82362
G1 X138.977 Y124.518 E2.8673
G1 X138.542 Y125.349 E2.91098
G1 X138.038 Y126.139 E2.95461
G1 X137.468 Y126.884 E2.99829
G1 X137.093 Y127.311 E3.02475
G1 X136.791 Y127.632 E3.04528
G1 X136.439 Y127.992 E3.06872
G1 X134.882 Y129.552 E3.17135
G1 X134.377 Y130.044 E3.20418
G1 X134.156 Y130.253 E3.21834
G1 X133.148 Y131.181 E3.28214
G1 X132.922 Y131.384 E3.29629
G1 X131.113 Y133.098 E3.41233
G1 X129.325 Y134.89 E3.5302
G1 X127.604 Y136.716 E3.64704
G1 X126.81 Y137.598 E3.7023
G1 X126.456 Y137.978 E3.72648
G1 X126.275 Y138.167 E3.73867
G1 X125.931 Y138.518 E3.76155
G1 X124.378 Y140.069 E3.86376
G1 X123.867 Y140.565 E3.89692
G1 X123.167 Y141.189 E3.94058
G1 X122.416 Y141.751 E3.98426
G1 X121.64 Y142.236 E4.02687
G1 X120.647 Y142.8 E4.08005
G1 X118.415 Y144.112 E4.2006
G1 X117.712 Y144.546 E4.23907
G1 X117.273 Y144.809 E4.2629
G1 X116.449 Y145.256 E4.30655
G1 X115.589 Y145.632 E4.35026
G1 X114.701 Y145.933 E4.39392
G1 X113.79 Y146.157 E4.4376
G1 X112.864 Y146.302 E4.48125
G1 X111.928 Y146.369 E4.52494
G1 X110.991 Y146.355 E4.56858
G1 X110.057 Y146.261 E4.61229
G1 X109.135 Y146.089 E4.65596
G1 X108.232 Y145.838 E4.6996
G1 X107.353 Y145.511 E4.74327
G1 X106.504 Y145.111 E4.78697
G1 X105.694 Y144.64 E4.8306
G1 X104.926 Y144.101 E4.87429
G1 X103.987 Y143.294 E4.93195
G1 X103.327 Y142.658 E4.97462
G1 X98.719 Y138.053 E5.27797
G1 X98.096 Y137.415 E5.31949
G1 X97.471 Y136.716 E5.36315
G1 X96.908 Y135.966 E5.40682
G1 X96.41 Y135.171 E5.4505
G1 X95.983 Y134.336 E5.49417
G1 X95.628 Y133.468 E5.53784
G1 X95.348 Y132.573 E5.58151
G1 X95.145 Y131.657 E5.6252
G1 X95.021 Y130.727 E5.66888
G1 X94.984 Y130.136 E5.69646
G1 X94.973 Y129.735 E5.71514
G1 X94.967 Y129.189 E5.74056
G1 X94.968 Y110.184 E6.62551
G1 X94.977 Y109.508 E6.657
G1 X95.029 Y108.571 E6.70069
G1 X95.161 Y107.643 E6.74434
G1 X95.372 Y106.729 E6.78802
G1 X95.66 Y105.836 E6.83171
G1 X96.023 Y104.971 E6.87539
G1 X96.458 Y104.14 E6.91907
G1 X96.962 Y103.35 E6.9627
G1 X97.532 Y102.605 E7.00638
G1 X98.163 Y101.911 E7.05006
G0 F6000 X98.555 Y102.085
G1 F1200 X99.24 Y101.47 E7.09292
G1 X99.975 Y100.916 E7.13578
G1 X100.756 Y100.428 E7.17866
G1 X101.576 Y100.01 E7.22152
G1 X102.43 Y99.665 E7.26441
G1 X103.31 Y99.395 E7.30727
G1 X104.21 Y99.202 E7.35013
G1 X105.124 Y99.088 E7.39302
G1 X105.74 Y99.057 E7.42174
G1 X106.774 Y99.034 E7.4699
G1 X106.996 Y99.031 E7.48024
G1 X120.953 Y99.012 E8.13013
G1 X125.381 Y99.012 E8.33632
G1 X126.232 Y99.023 E8.37595
G1 X127.152 Y99.076 E8.41886
G1 X128.063 Y99.209 E8.46173
G1 X128.959 Y99.42 E8.50459
G1 X129.833 Y99.708 E8.54744
G1 X130.679 Y100.071 E8.59031
G1 X131.491 Y100.506 E8.6332
G1 X132.261 Y101.01 E8.67605
G1 X132.985 Y101.579 E8.71893
G1 X133.657 Y102.208 E8.76179
G1 X134.272 Y102.894 E8.80469
G1 X134.825 Y103.63 E8.84756
G1 X135.312 Y104.411 E8.89042
G1 X135.729 Y105.232 E8.93329
G1 X136.074 Y106.085 E8.97614
G1 X136.31 Y106.877 E9.01462
G1 X136.317 Y106.875 E9.01496
G1 X137.031 Y109.461 E9.13988
G1 X137.774 Y111.879 E9.25767
G1 X138.646 Y114.453 E9.38421
G1 X139.009 Y115.474 E9.43467
G1 X139.28 Y116.354 E9.47755
G1 X139.473 Y117.254 E9.52041
G1 X139.587 Y118.168 E9.5633
G1 X139.618 Y118.723 E9.58918
G1 X139.626 Y119.003 E9.60222
G1 X139.629 Y119.446 E9.62285
G1 X139.622 Y119.976 E9.64753
G1 X139.57 Y120.895 E9.69039
G1 X139.438 Y121.806 E9.73326
G1 X139.228 Y122.703 E9.77615
G1 X138.941 Y123.577 E9.81899
G1 X138.579 Y124.424 E9.86188
G1 X138.145 Y125.236 E9.90475
G1 X137.642 Y126.007 E9.94762
G1 X136.8 Y127.039 E10.00964
G1 X136.687 Y127.161 E10.01738
G1 X136.504 Y127.353 E10.02973
G1 X136.156 Y127.71 E10.05295
G1 X134.712 Y129.158 E10.14817
G1 X134.098 Y129.757 E10.18811
G1 X133.885 Y129.959 E10.20178
G1 X132.881 Y130.884 E10.26535
G1 X132.643 Y131.097 E10.28022
G1 X130.838 Y132.809 E10.39606
G1 X129.033 Y134.617 E10.51502
G1 X127.294 Y136.462 E10.63308
G1 X126.649 Y137.181 E10.67806
G1 X126.163 Y137.705 E10.71133
G1 X125.989 Y137.887 E10.72306
G1 X125.648 Y138.235 E10.74575
G1 X124.1 Y139.782 E10.84765
G1 X123.589 Y140.278 E10.88081
G1 X122.901 Y140.89 E10.92369
G1 X122.163 Y141.44 E10.96655
G1 X121.442 Y141.888 E11.00607
G1 X120.482 Y142.433 E11.05747
G1 X118.195 Y143.777 E11.18099
G1 X117.507 Y144.203 E11.21867
G1 X117.068 Y144.466 E11.2425
G1 X116.258 Y144.904 E11.28538
G1 X115.413 Y145.271 E11.32828
G1 X114.54 Y145.563 E11.37114
G1 X113.645 Y145.778 E11.414
G1 X112.735 Y145.914 E11.45685
G1 X111.816 Y145.971 E11.49972
G1 X110.895 Y145.948 E11.54262
G1 X109.98 Y145.845 E11.5855
G1 X109.078 Y145.664 E11.62834
G1 X108.195 Y145.404 E11.6712
G1 X107.337 Y145.069 E11.71409
G1 X106.512 Y144.661 E11.75694
G1 X105.725 Y144.183 E11.79982
G1 X104.983 Y143.638 E11.84269
G1 X104.265 Y143.006 E11.88723
G1 X103.605 Y142.37 E11.92991
G1 X99.002 Y137.77 E12.23292
G1 X98.383 Y137.136 E12.27418
G1 X97.77 Y136.449 E12.31706
G1 X97.218 Y135.712 E12.35993
G1 X96.733 Y134.929 E12.40282
G1 X96.318 Y134.107 E12.4457
G1 X95.976 Y133.253 E12.48853
G1 X95.709 Y132.372 E12.5314
G1 X95.519 Y131.471 E12.57428
G1 X95.384 Y130.122 E12.6374
G1 X95.373 Y129.73 E12.65566
G1 X95.367 Y129.189 E12.68086
G1 X95.368 Y110.189 E13.56558
G1 X95.377 Y109.513 E13.59706
G1 X95.429 Y108.594 E13.63992
G1 X95.561 Y107.683 E13.68278
G1 X95.771 Y106.786 E13.72568
G1 X96.059 Y105.912 E13.76853
G1 X96.421 Y105.065 E13.81142
G1 X96.855 Y104.253 E13.85429
G1 X97.358 Y103.482 E13.89716
G1 X97.926 Y102.758 E13.94001
G1 X98.555 Y102.085 E13.9829
G0 F6000 X98.946 Y102.263
G1 F1200 X99.628 Y101.67 E14.02498
G1 X100.359 Y101.14 E14.06703
G1 X101.134 Y100.677 E14.10906
G1 X101.947 Y100.284 E14.15111
G1 X102.791 Y99.964 E14.19314
G1 X103.661 Y99.72 E14.23521
G1 X104.549 Y99.554 E14.27728
G1 X105.749 Y99.457 E14.33334
G1 X106.783 Y99.434 E14.3815
G1 X106.996 Y99.431 E14.39142
G1 X120.953 Y99.412 E15.04131
G1 X125.381 Y99.412 E15.2475
G1 X126.227 Y99.423 E15.2869
G1 X127.128 Y99.476 E15.32892
G1 X128.022 Y99.608 E15.371
G1 X128.9 Y99.819 E15.41305
G1 X129.756 Y100.107 E15.45511
G1 X130.583 Y100.469 E15.49714
G1 X131.375 Y100.903 E15.53919
G1 X132.125 Y101.406 E15.58125
G1 X132.828 Y101.973 E15.6233
G1 X133.479 Y102.599 E15.66535
G1 X134.071 Y103.281 E15.70741
G1 X134.6 Y104.013 E15.74946
G1 X135.063 Y104.788 E15.7915
G1 X135.455 Y105.602 E15.83357
G1 X135.774 Y106.447 E15.87562
G1 X135.927 Y106.982 E15.90153
G1 X136.642 Y109.557 E16.02597
G1 X137.395 Y112.01 E16.14546
G1 X138.269 Y114.589 E16.27225
G1 X138.632 Y115.608 E16.32262
G1 X138.897 Y116.472 E16.3647
G1 X139.084 Y117.355 E16.40673
G1 X139.193 Y118.252 E16.44881
G1 X139.218 Y118.735 E16.47133
G1 X139.226 Y119.015 E16.48437
G1 X139.229 Y119.441 E16.50421
G1 X139.222 Y119.971 E16.52889
G1 X139.17 Y120.872 E16.57091
G1 X139.039 Y121.766 E16.61299
G1 X138.829 Y122.644 E16.65502
G1 X138.542 Y123.501 E16.69711
G1 X138.181 Y124.328 E16.73912
G1 X137.747 Y125.121 E16.78122
G1 X137.246 Y125.872 E16.82326
G1 X136.506 Y126.767 E16.87733
G1 X136.218 Y127.074 E16.89693
G1 X135.872 Y127.428 E16.91998
G1 X134.324 Y128.979 E17.02202
G1 X133.819 Y129.471 E17.05485
G1 X133.614 Y129.665 E17.06799
G1 X132.614 Y130.586 E17.13129
G1 X132.384 Y130.792 E17.14567
G1 X130.544 Y132.536 E17.26372
G1 X128.759 Y134.325 E17.3814
G1 X126.988 Y136.204 E17.50163
G1 X126.351 Y136.914 E17.54605
G1 X125.87 Y137.433 E17.579
G1 X125.703 Y137.608 E17.59026
G1 X125.449 Y137.868 E17.60718
G1 X123.821 Y139.495 E17.71436
G1 X123.31 Y139.991 E17.74752
G1 X122.635 Y140.591 E17.78957
G1 X121.909 Y141.128 E17.83162
G1 X121.245 Y141.541 E17.86803
G1 X120.196 Y142.137 E17.92421
G1 X118.023 Y143.414 E18.04157
G1 X117.301 Y143.86 E18.08109
G1 X116.862 Y144.123 E18.10492
G1 X116.067 Y144.552 E18.14698
G1 X115.238 Y144.91 E18.18903
G1 X114.38 Y145.192 E18.23108
G1 X113.501 Y145.398 E18.27312
G1 X112.607 Y145.525 E18.31517
G1 X111.705 Y145.573 E18.35723
G1 X110.803 Y145.54 E18.39926
G1 X109.906 Y145.428 E18.44135
G1 X109.024 Y145.237 E18.48337
G1 X108.161 Y144.969 E18.52545
G1 X107.326 Y144.625 E18.5675
G1 X106.525 Y144.209 E18.60953
G1 X105.763 Y143.724 E18.65159
G1 X105.047 Y143.173 E18.69366
G1 X104.542 Y142.718 E18.72531
G1 X103.882 Y142.082 E18.76799
G1 X99.284 Y137.487 E19.07068
G1 X98.669 Y136.857 E19.11167
G1 X98.068 Y136.183 E19.15372
G1 X97.53 Y135.458 E19.19576
G1 X97.057 Y134.688 E19.23784
G1 X96.654 Y133.88 E19.27988
G1 X96.325 Y133.039 E19.32193
G1 X96.071 Y132.172 E19.364
G1 X95.895 Y131.287 E19.40602
G1 X95.784 Y130.108 E19.46116
G1 X95.773 Y129.725 E19.479
G1 X95.767 Y129.189 E19.50396
G1 X95.768 Y110.194 E20.38845
G1 X95.777 Y109.518 E20.41993
G1 X95.829 Y108.617 E20.46195
G1 X95.96 Y107.723 E20.50403
G1 X96.17 Y106.845 E20.54606
G1 X96.457 Y105.988 E20.58815
G1 X96.819 Y105.161 E20.63018
G1 X97.252 Y104.369 E20.67221
G1 X97.754 Y103.618 E20.71428
G1 X98.32 Y102.914 E20.75634
G1 X98.946 Y102.263 E20.79839
G1 F2700 E15.79839
G0 F6000 X126.245 Y108.951
G0 X126.749 Y109.455
G0 X129.693 Y118.867
G0 X129.697 Y119.925
G0 X129.568 Y120.245
G0 X127.115 Y122.704
G0 X126.797 Y122.837
G0 X119.786 Y122.846
G0 X119.529 Y122.741
G0 X114.567 Y118.484
G1 F2700 E20.79839
G1 F1200 X114.666 Y118.451 E20.80325
G1 X114.728 Y118.535 E20.80811
G1 X114.667 Y118.619 E20.81295
G1 X114.567 Y118.586 E20.81785
G1 X114.567 Y118.484 E20.8226
G0 F6000 X114.226 Y118.237
G1 F1200 X114.482 Y118.051 E20.83733
G1 X114.796 Y118.051 E20.85196
G1 X115.052 Y118.237 E20.86669
G1 X115.148 Y118.535 E20.88127
G1 X115.052 Y118.833 E20.89585
G1 X114.796 Y119.019 E20.91058
G1 X114.482 Y119.019 E20.9252
G1 X114.226 Y118.833 E20.93994
G1 X114.13 Y118.535 E20.95452
G1 X114.226 Y118.237 E20.96909
G0 F6000 X113.887 Y117.989
G1 F1200 X114.352 Y117.651 E20.99586
G1 X114.926 Y117.651 E21.02259
G1 X115.391 Y117.989 E21.04936
G1 X115.568 Y118.535 E21.07608
G1 X115.391 Y119.081 E21.10281
G1 X114.926 Y119.419 E21.12958
G1 X114.352 Y119.419 E21.15631
G1 X113.887 Y119.081 E21.18308
G1 X113.71 Y118.535 E21.2098
G1 X113.887 Y117.989 E21.23653
G0 F6000 X113.546 Y117.743
G1 F1200 X114.223 Y117.251 E21.2755
G1 X115.055 Y117.251 E21.31424
G1 X115.732 Y117.743 E21.35321
G1 X115.99 Y118.535 E21.392
G1 X115.732 Y119.327 E21.43078
G1 X115.055 Y119.819 E21.46975
G1 X114.223 Y119.819 E21.50849
G1 X113.546 Y119.327 E21.54746
G1 X113.288 Y118.535 E21.58625
G1 X113.546 Y117.743 E21.62503
G0 F6000 X113.243 Y117.144
G1 F1200 X113.212 Y116.835 E21.63949
G1 X113.524 Y116.835 E21.65402
G1 X113.243 Y117.144 E21.67347
G1 F2700 E16.67347
;MESH:motor_mount_fittest.stl
G0 F6000 X111.77 Y117.144
G0 X111.482 Y125.703
G0 X116.954 Y125.714
G0 X116.954 Y128.163
G0 X111.248 Y128.172
G0 X110.212 Y132.009
;TYPE:WALL-INNER
G1 F2700 E21.67347
G1 F1200 X109.872 Y131.669 E21.69586
G1 X107.367 Y129.165 E21.86079
G1 X107.367 Y111.029 E22.70527
G1 X120.97 Y111.012 E23.33869
G1 X124.688 Y111.012 E23.51181
G1 X124.69 Y113.829 E23.64298
G1 X124.688 Y115.553 E23.72326
G1 X124.693 Y120.431 E23.9504
G1 X126.471 Y120.428 E24.03319
G1 X126.126 Y120.773 E24.05591
G1 X124.694 Y120.775 E24.11229
G1 X121.88 Y120.779 E24.24332
G1 X120.45 Y120.782 E24.30991
G1 X120.103 Y120.435 E24.33276
G1 X121.879 Y120.432 E24.40678
G1 X121.875 Y114.435 E24.68603
G1 X110.79 Y114.435 E25.20219
G1 X110.79 Y125.532 E25.71892
G1 X116.79 Y125.532 E25.9983
G1 X116.79 Y123.755 E26.08105
G1 X117.136 Y124.101 E26.10383
G1 X117.136 Y125.532 E26.16054
G1 X117.136 Y128.345 E26.29153
G1 X117.136 Y129.776 E26.35816
G1 X116.79 Y130.122 E26.38095
G1 X116.79 Y128.345 E26.45377
G1 X110.212 Y128.345 E26.76007
G1 X110.212 Y131.528 E26.90828
G1 X110.212 Y132.009 E26.92034
G0 F6000 X110.612 Y132.975
G1 F1200 X110.272 Y132.635 E26.94273
G1 X106.967 Y129.331 E27.16034
G1 X106.967 Y110.63 E28.03114
G1 X120.969 Y110.612 E28.68313
G1 X125.088 Y110.612 E28.87493
G1 X125.09 Y113.829 E29.02472
G1 X125.088 Y115.553 E29.105
G1 X125.093 Y120.03 E29.31347
G1 X126.955 Y120.026 E29.40017
G1 X127.436 Y120.026 E29.42257
G1 X127.097 Y120.366 E29.4346
G1 X126.292 Y121.173 E29.48767
G1 X120.286 Y121.182 E29.76734
G1 X119.478 Y120.376 E29.82048
G1 X119.138 Y120.037 E29.84284
G1 X119.619 Y120.037 E29.8549
G1 X121.479 Y120.033 E29.94151
G1 X121.475 Y114.835 E30.18355
G1 X111.19 Y114.835 E30.66246
G1 X111.19 Y125.132 E31.14193
G1 X116.39 Y125.132 E31.38407
G1 X116.39 Y123.27 E31.47077
G1 X116.39 Y122.789 E31.49317
G1 X116.73 Y123.129 E31.5052
G1 X117.536 Y123.935 E31.55828
G1 X117.536 Y129.942 E31.83799
G1 X116.73 Y130.747 E31.89103
G1 X116.39 Y131.087 E31.91342
G1 X116.39 Y130.606 E31.92548
G1 X116.39 Y128.745 E32.01214
G1 X110.612 Y128.745 E32.28119
G1 X110.612 Y132.494 E32.45575
G1 X110.612 Y132.975 E32.46781
G0 F6000 X111.012 Y133.941
G1 F1200 X110.672 Y133.601 E32.4902
G1 X106.567 Y129.497 E32.76049
G1 X106.567 Y110.231 E33.6576
G1 X120.968 Y110.212 E34.32817
G1 X125.488 Y110.212 E34.53864
G1 X125.49 Y113.829 E34.70706
G1 X125.488 Y115.553 E34.78734
G1 X125.493 Y119.629 E34.97713
G1 X127.921 Y119.625 E35.09019
G1 X128.402 Y119.625 E35.11259
G1 X128.063 Y119.965 E35.12462
G1 X126.458 Y121.573 E35.23041
G1 X120.12 Y121.582 E35.52553
G1 X118.512 Y119.977 E35.63132
G1 X118.172 Y119.638 E35.65368
G1 X118.653 Y119.638 E35.66574
G1 X121.079 Y119.634 E35.77871
G1 X121.075 Y115.235 E35.98354
G1 X111.59 Y115.235 E36.4252
G1 X111.59 Y124.732 E36.86742
G1 X115.99 Y124.732 E37.07231
G1 X115.99 Y122.304 E37.18536
G1 X115.99 Y121.823 E37.20776
G1 X116.33 Y122.163 E37.2198
G1 X117.936 Y123.769 E37.32555
G1 X117.936 Y130.108 E37.62072
G1 X116.33 Y131.713 E37.72645
G1 X115.99 Y132.053 E37.74884
G1 X115.99 Y131.572 E37.7609
G1 X115.99 Y129.145 E37.87391
G1 X111.012 Y129.145 E38.10571
G1 X111.012 Y133.46 E38.30663
G1 X111.012 Y133.941 E38.31869
G0 F6000 X111.174 Y134.333
G0 X111.412 Y134.907
;TYPE:WALL-OUTER
G1 F1200 X106.167 Y129.663 E38.66405
G1 X106.167 Y109.832 E39.58746
G1 X120.967 Y109.812 E40.27661
G1 X125.888 Y109.812 E40.50576
G1 X125.89 Y113.829 E40.69281
G1 X125.888 Y115.553 E40.77308
G1 X125.893 Y119.228 E40.94421
G1 X128.832 Y119.224 E41.08106
