;FLAVOR:Marlin
;TIME:2126
;Filament used: 1.061m
;Layer height: 0.2
;MINX:93.625
;MINY:98.152
;MINZ:0.2
;MAXX:145.817
;MAXY:147.606
;MAXZ:10
;Generated with Cura_SteamEngine 4.13.1
M140 S80
M105
M190 S80
M104 S240
M105
M109 S240
M82 ;absolute extrusion mode
; Ender 3 Custom Start G-code
G92 E0 ; Reset Extruder
G28 ; Home all axes
G1 Z2.0 F3000 ; Move Z Axis up little to prevent scratching of Heat Bed
G1 X0.1 Y20 Z0.3 F5000.0 ; Move to start position
G1 X0.1 Y200.0 Z0.3 F1500.0 E15 ; Draw the first line
G1 X0.4 Y200.0 Z0.3 F5000.0 ; Move to side a little
G1 X0.4 Y20 Z0.3 F1500.0 E30 ; Draw the second line
G92 E0 ; Reset Extruder
G1 Z2.0 F3000 ; Move Z Axis up little to prevent scratching of Heat Bed
G1 X5 Y20 Z0.3 F5000.0 ; Move over to prevent blob squish
G92 E0
G92 E0
G1 F2700 E-5
;LAYER_COUNT:50
;LAYER:0
M107
G0 F6000 X109.91 Y103.848 Z0.2
;TYPE:SKIRT
G1 F2700 E0
G1 F1200 X110.079 Y103.671 E0.00814
G1 X110.422 Y103.321 E0.02444
G1 X112.012 Y101.736 E0.09911
G1 X112.502 Y101.261 E0.12181
G1 X113.202 Y100.637 E0.153
G1 X113.953 Y100.076 E0.18418
G1 X114.75 Y99.58 E0.2154
G1 X115.585 Y99.154 E0.24658
G1 X116.454 Y98.801 E0.27777
G1 X117.35 Y98.523 E0.30898
G1 X118.266 Y98.323 E0.34016
G1 X119.196 Y98.201 E0.37136
G1 X119.857 Y98.163 E0.39338
G1 X120.149 Y98.155 E0.40309
G1 X120.619 Y98.152 E0.41873
G1 X121.139 Y98.16 E0.43602
G1 X122.076 Y98.215 E0.46724
G1 X123.004 Y98.349 E0.49843
G1 X123.917 Y98.561 E0.5296
G1 X124.52 Y98.748 E0.5506
G1 X124.992 Y98.909 E0.56719
G1 X126.862 Y99.571 E0.63317
G1 X129.255 Y100.343 E0.7168
G1 X131.69 Y101.055 E0.80118
G1 X131.993 Y101.134 E0.81159
G1 X133.292 Y101.491 E0.8564
G1 X134.185 Y101.778 E0.88759
G1 X135.05 Y102.14 E0.91878
G1 X135.881 Y102.574 E0.94996
G1 X136.673 Y103.078 E0.98119
G1 X137.418 Y103.647 E1.01237
G1 X138.112 Y104.277 E1.04354
G1 X138.751 Y104.965 E1.07477
G1 X139.328 Y105.704 E1.10596
G1 X139.84 Y106.49 E1.13716
G1 X140.283 Y107.316 E1.16833
G1 X140.578 Y107.983 E1.19259
G1 X141.579 Y110.465 E1.2816
G1 X142.582 Y112.762 E1.36496
G1 X143.673 Y115.082 E1.45023
G1 X144.36 Y116.458 E1.50139
G1 X144.743 Y117.314 E1.53258
G1 X144.929 Y117.817 E1.55041
G1 X145.116 Y118.364 E1.56964
G1 X145.218 Y118.679 E1.58065
G1 X145.338 Y119.068 E1.59419
G1 X145.576 Y119.976 E1.62541
G1 X145.736 Y120.9 E1.6566
G1 X145.817 Y121.834 E1.68779
G1 X145.817 Y122.772 E1.71898
G1 X145.738 Y123.707 E1.75019
G1 X145.58 Y124.631 E1.78137
G1 X145.345 Y125.532 E1.81234
G1 X145.179 Y126.074 E1.83119
G1 X145.08 Y126.381 E1.84192
G1 X144.952 Y126.759 E1.8552
G1 X144.613 Y127.634 E1.88641
G1 X144.343 Y128.207 E1.90748
G1 X143.665 Y129.543 E1.95731
G1 X143.544 Y129.777 E1.96607
G1 X142.449 Y132.024 E2.0492
G1 X141.394 Y134.357 E2.13437
G1 X140.645 Y136.144 E2.19881
G1 X140.424 Y136.649 E2.21715
G1 X140.009 Y137.49 E2.24834
G1 X139.523 Y138.293 E2.27956
G1 X138.971 Y139.051 E2.31074
G1 X138.357 Y139.759 E2.34191
G1 X137.684 Y140.413 E2.37313
G1 X136.958 Y141.007 E2.40433
G1 X136.184 Y141.536 E2.43551
G1 X135.368 Y141.998 E2.46669
G1 X134.619 Y142.346 E2.49416
G1 X133.942 Y142.63 E2.51858
G1 X131.485 Y143.698 E2.60769
G1 X129.191 Y144.775 E2.69198
G1 X126.959 Y145.899 E2.7751
G1 X126.589 Y146.095 E2.78902
G1 X126.012 Y146.39 E2.81058
G1 X125.16 Y146.781 E2.84176
G1 X124.277 Y147.098 E2.87296
G1 X123.371 Y147.339 E2.90414
G1 X122.447 Y147.501 E2.93534
G1 X121.204 Y147.594 E2.9768
G1 X120.596 Y147.605 E2.99703
G1 X120.248 Y147.606 E3.0086
G1 X119.879 Y147.601 E3.02087
G1 X118.943 Y147.548 E3.05206
G1 X118.014 Y147.416 E3.08327
G1 X117.1 Y147.205 E3.11446
G1 X116.208 Y146.917 E3.14564
G1 X115.086 Y146.429 E3.18634
G1 X114.33 Y146.049 E3.21448
G1 X111.938 Y144.886 E3.30294
G1 X109.673 Y143.864 E3.38559
G1 X107.248 Y142.851 E3.473
G1 X106.164 Y142.415 E3.51186
G1 X105.309 Y142.028 E3.54308
G1 X104.491 Y141.57 E3.57426
G1 X103.714 Y141.044 E3.60546
G1 X102.791 Y140.278 E3.64536
G1 X102.642 Y140.14 E3.65211
G1 X102.235 Y139.748 E3.67091
G1 X102.126 Y139.642 E3.67596
G1 X97.338 Y134.857 E3.90111
G1 X96.73 Y134.232 E3.93011
G1 X96.106 Y133.531 E3.96132
G1 X95.545 Y132.781 E3.99247
G1 X95.049 Y131.984 E4.0237
G1 X94.622 Y131.149 E4.05489
G1 X94.269 Y130.28 E4.08609
G1 X93.991 Y129.385 E4.11726
G1 X93.79 Y128.469 E4.14845
G1 X93.668 Y127.539 E4.17964
G1 X93.625 Y126.602 E4.21084
G1 X93.662 Y125.665 E4.24203
G1 X93.78 Y124.734 E4.27324
G1 X93.976 Y123.817 E4.30443
G1 X94.249 Y122.92 E4.33562
G1 X94.598 Y122.049 E4.36683
G1 X95.213 Y120.879 E4.41079
G1 X96.559 Y118.653 E4.49731
G1 X97.098 Y117.699 E4.53375
G1 X97.798 Y116.486 E4.58033
G1 X98.301 Y115.694 E4.61154
G1 X98.869 Y114.948 E4.64273
G1 X99.245 Y114.52 E4.66167
G1 X99.366 Y114.389 E4.6676
G1 X99.594 Y114.149 E4.67862
G1 X99.926 Y113.812 E4.69435
G1 X101.446 Y112.293 E4.76582
G1 X102.01 Y111.745 E4.79198
G1 X102.225 Y111.541 E4.80183
G1 X103.068 Y110.765 E4.83994
G1 X103.436 Y110.436 E4.85636
G1 X105.273 Y108.699 E4.94045
G1 X107.043 Y106.926 E5.02378
G1 X108.796 Y105.071 E5.10866
G1 X109.409 Y104.388 E5.13919
G1 X109.548 Y104.236 E5.14604
G1 X109.91 Y103.848 E5.16369
G0 F6000 X110.202 Y104.121
G1 F1200 X110.365 Y103.95 E5.17155
G1 X110.704 Y103.604 E5.18766
G1 X112.29 Y102.023 E5.26214
G1 X112.78 Y101.548 E5.28484
G1 X113.468 Y100.937 E5.31544
G1 X114.207 Y100.387 E5.34608
G1 X114.991 Y99.904 E5.37671
G1 X115.813 Y99.49 E5.40732
G1 X116.669 Y99.15 E5.43796
G1 X117.55 Y98.885 E5.46855
G1 X118.452 Y98.697 E5.4992
G1 X119.366 Y98.589 E5.52981
G1 X119.868 Y98.563 E5.54653
G1 X120.16 Y98.555 E5.55625
G1 X120.613 Y98.552 E5.57131
G1 X121.133 Y98.56 E5.58861
G1 X122.052 Y98.614 E5.61923
G1 X122.963 Y98.748 E5.64985
G1 X123.859 Y98.96 E5.68048
G1 X124.391 Y99.126 E5.69901
G1 X124.858 Y99.286 E5.71543
G1 X126.742 Y99.953 E5.78191
G1 X129.125 Y100.722 E5.86519
G1 X131.591 Y101.442 E5.95063
G1 X131.887 Y101.52 E5.96081
G1 X133.186 Y101.877 E6.00562
G1 X134.062 Y102.159 E6.03623
G1 X134.911 Y102.517 E6.06688
G1 X135.725 Y102.946 E6.09748
G1 X136.499 Y103.445 E6.12811
G1 X137.227 Y104.009 E6.15874
G1 X137.903 Y104.633 E6.18934
G1 X138.522 Y105.315 E6.21997
G1 X139.08 Y106.047 E6.25058
G1 X139.572 Y106.825 E6.2812
G1 X139.995 Y107.643 E6.31183
G1 X140.207 Y108.133 E6.32959
G1 X141.2 Y110.596 E6.41791
G1 X142.225 Y112.943 E6.5031
G1 X143.318 Y115.269 E6.58857
G1 X144.002 Y116.637 E6.63944
G1 X144.378 Y117.478 E6.67008
G1 X144.55 Y117.946 E6.68667
G1 X144.737 Y118.493 E6.7059
G1 X144.836 Y118.797 E6.71653
G1 X144.956 Y119.186 E6.73007
G1 X145.189 Y120.077 E6.7607
G1 X145.344 Y120.985 E6.79134
G1 X145.419 Y121.902 E6.82194
G1 X145.415 Y122.823 E6.85257
G1 X145.33 Y123.74 E6.8832
G1 X145.167 Y124.646 E6.91382
G1 X144.962 Y125.415 E6.94029
G1 X144.796 Y125.957 E6.95914
G1 X144.701 Y126.253 E6.96948
G1 X144.573 Y126.631 E6.98276
G1 X144.24 Y127.489 E7.01337
G1 X143.986 Y128.026 E7.03313
G1 X143.31 Y129.358 E7.08281
G1 X143.202 Y129.565 E7.09057
G1 X142.069 Y131.892 E7.17666
G1 X141.037 Y134.173 E7.25992
G1 X140.276 Y135.99 E7.32544
G1 X140.058 Y136.488 E7.34353
G1 X139.65 Y137.313 E7.37414
G1 X139.172 Y138.099 E7.40473
G1 X138.627 Y138.842 E7.43538
G1 X138.02 Y139.534 E7.466
G1 X137.355 Y140.17 E7.4966
G1 X136.637 Y140.747 E7.52724
G1 X135.872 Y141.259 E7.55786
G1 X135.065 Y141.703 E7.58849
G1 X134.464 Y141.978 E7.61047
G1 X133.708 Y142.295 E7.63774
G1 X131.305 Y143.34 E7.72489
G1 X129.048 Y144.399 E7.80782
G1 X126.753 Y145.555 E7.89328
G1 X126.407 Y145.739 E7.90632
G1 X125.83 Y146.034 E7.92787
G1 X124.993 Y146.417 E7.95849
G1 X124.126 Y146.726 E7.9891
G1 X123.235 Y146.959 E8.01973
G1 X122.328 Y147.113 E8.05033
G1 X121.197 Y147.194 E8.08804
G1 X120.589 Y147.205 E8.10827
G1 X120.253 Y147.206 E8.11944
G1 X119.884 Y147.201 E8.13172
G1 X118.965 Y147.149 E8.16233
G1 X118.054 Y147.017 E8.19295
G1 X117.158 Y146.806 E8.22357
G1 X116.283 Y146.518 E8.2542
G1 X115.266 Y146.072 E8.29114
G1 X114.476 Y145.675 E8.32055
G1 X112.112 Y144.525 E8.40798
G1 X109.843 Y143.501 E8.49078
G1 X107.331 Y142.452 E8.58132
G1 X106.313 Y142.043 E8.61781
G1 X105.475 Y141.663 E8.64841
G1 X104.672 Y141.212 E8.67905
G1 X103.912 Y140.692 E8.70968
G1 X103.063 Y139.985 E8.74642
G1 X102.728 Y139.671 E8.76169
G1 X102.409 Y139.359 E8.77653
G1 X97.621 Y134.574 E9.00168
G1 X97.017 Y133.953 E9.03049
G1 X96.406 Y133.265 E9.06109
G1 X95.856 Y132.527 E9.09171
G1 X95.372 Y131.743 E9.12235
G1 X94.958 Y130.921 E9.15296
G1 X94.617 Y130.066 E9.18358
G1 X94.352 Y129.184 E9.21421
G1 X94.164 Y128.283 E9.24482
G1 X94.055 Y127.369 E9.27544
G1 X94.026 Y126.449 E9.30605
G1 X94.076 Y125.529 E9.3367
G1 X94.207 Y124.618 E9.36731
G1 X94.416 Y123.721 E9.39794
G1 X94.701 Y122.846 E9.42855
G1 X95.062 Y121.999 E9.45917
G1 X95.555 Y121.086 E9.49368
G1 X96.907 Y118.851 E9.58056
G1 X97.444 Y117.899 E9.61692
G1 X98.144 Y116.686 E9.6635
G1 X98.638 Y115.909 E9.69412
G1 X99.198 Y115.178 E9.72475
G1 X99.538 Y114.792 E9.74186
G1 X99.659 Y114.661 E9.74779
G1 X99.88 Y114.429 E9.75845
G1 X100.209 Y114.094 E9.77406
G1 X101.724 Y112.58 E9.8453
G1 X102.288 Y112.032 E9.87145
G1 X102.496 Y111.835 E9.88098
G1 X103.464 Y110.946 E9.9247
G1 X103.712 Y110.725 E9.93574
G1 X105.547 Y108.99 E10.01974
G1 X107.335 Y107.2 E10.10389
G1 X109.099 Y105.331 E10.18937
G1 X109.84 Y104.509 E10.22617
G1 X110.202 Y104.121 E10.24382
G0 F6000 X110.495 Y104.394
G1 F1200 X110.652 Y104.229 E10.2514
G1 X110.987 Y103.887 E10.26732
G1 X112.568 Y102.31 E10.34159
G1 X113.058 Y101.835 E10.36429
G1 X113.734 Y101.236 E10.39433
G1 X114.46 Y100.699 E10.42437
G1 X115.231 Y100.228 E10.45442
G1 X116.04 Y99.827 E10.48445
G1 X116.882 Y99.5 E10.51449
G1 X117.749 Y99.248 E10.54452
G1 X118.635 Y99.073 E10.57456
G1 X119.879 Y98.963 E10.6161
G1 X120.171 Y98.955 E10.62581
G1 X120.607 Y98.952 E10.64031
G1 X121.127 Y98.96 E10.65761
G1 X122.028 Y99.014 E10.68763
G1 X122.922 Y99.147 E10.71769
G1 X123.8 Y99.359 E10.74774
G1 X124.262 Y99.505 E10.76385
G1 X124.725 Y99.663 E10.78012
G1 X126.634 Y100.339 E10.84748
G1 X128.995 Y101.101 E10.92999
G1 X131.45 Y101.818 E11.01506
G1 X131.781 Y101.906 E11.02645
G1 X133.08 Y102.263 E11.07126
G1 X133.939 Y102.54 E11.10128
G1 X134.771 Y102.893 E11.13134
G1 X135.568 Y103.318 E11.16138
G1 X136.324 Y103.811 E11.1914
G1 X137.034 Y104.37 E11.22145
G1 X137.691 Y104.989 E11.25148
G1 X138.291 Y105.664 E11.28151
G1 X138.83 Y106.389 E11.31156
G1 X139.301 Y107.159 E11.34158
G1 X139.837 Y108.283 E11.383
G1 X140.847 Y110.787 E11.4728
G1 X141.854 Y113.094 E11.55653
G1 X142.964 Y115.456 E11.64333
G1 X143.644 Y116.816 E11.6939
G1 X144.012 Y117.641 E11.72395
G1 X144.172 Y118.075 E11.73933
G1 X144.359 Y118.622 E11.75856
G1 X144.454 Y118.915 E11.7688
G1 X144.574 Y119.304 E11.78234
G1 X144.802 Y120.178 E11.81239
G1 X144.951 Y121.069 E11.84243
G1 X145.021 Y121.969 E11.87246
G1 X145.012 Y122.872 E11.90249
G1 X144.922 Y123.771 E11.93254
G1 X144.753 Y124.658 E11.96257
G1 X144.58 Y125.298 E11.98463
G1 X144.414 Y125.84 E12.00348
G1 X144.322 Y126.124 E12.01341
G1 X144.194 Y126.502 E12.02668
G1 X143.867 Y127.344 E12.05672
G1 X143.63 Y127.845 E12.07516
G1 X142.955 Y129.174 E12.12474
G1 X142.837 Y129.4 E12.13322
G1 X141.717 Y131.702 E12.21836
G1 X140.662 Y134.033 E12.30346
G1 X139.83 Y136.016 E12.37499
G1 X139.693 Y136.326 E12.38626
G1 X139.291 Y137.135 E12.41631
G1 X138.82 Y137.906 E12.44636
G1 X138.282 Y138.631 E12.47638
G1 X137.683 Y139.307 E12.50642
G1 X137.026 Y139.926 E12.53645
G1 X136.317 Y140.485 E12.56648
G1 X135.561 Y140.979 E12.59651
G1 X134.764 Y141.405 E12.62657
G1 X134.309 Y141.609 E12.64315
G1 X133.57 Y141.919 E12.66981
G1 X131.141 Y142.975 E12.7579
G1 X128.877 Y144.037 E12.84108
G1 X126.596 Y145.187 E12.92604
G1 X126.225 Y145.383 E12.94
G1 X125.648 Y145.678 E12.96155
G1 X124.827 Y146.053 E12.99157
G1 X123.975 Y146.354 E13.02162
G1 X123.1 Y146.578 E13.05166
G1 X122.209 Y146.725 E13.0817
G1 X121.19 Y146.794 E13.11567
G1 X120.582 Y146.805 E13.13589
G1 X120.259 Y146.806 E13.14664
G1 X119.89 Y146.801 E13.15891
G1 X118.988 Y146.749 E13.18896
G1 X118.095 Y146.617 E13.21899
G1 X117.216 Y146.407 E13.24904
G1 X116.36 Y146.12 E13.27907
G1 X115.445 Y145.715 E13.31235
G1 X114.58 Y145.28 E13.34456
G1 X112.301 Y144.172 E13.42884
G1 X109.965 Y143.118 E13.51408
G1 X107.557 Y142.112 E13.60088
G1 X106.462 Y141.672 E13.64013
G1 X105.64 Y141.299 E13.67015
G1 X104.854 Y140.854 E13.70019
G1 X104.111 Y140.341 E13.73022
G1 X103.335 Y139.691 E13.76389
G1 X103.007 Y139.384 E13.77883
G1 X102.692 Y139.076 E13.79349
G1 X97.793 Y134.179 E14.02387
G1 X97.304 Y133.675 E14.04723
G1 X96.705 Y132.999 E14.07727
G1 X96.167 Y132.274 E14.1073
G1 X95.696 Y131.503 E14.13735
G1 X95.295 Y130.694 E14.16738
G1 X94.967 Y129.853 E14.1974
G1 X94.715 Y128.985 E14.22747
G1 X94.54 Y128.099 E14.2575
G1 X94.444 Y127.201 E14.28754
G1 X94.429 Y126.298 E14.31758
G1 X94.493 Y125.398 E14.34759
G1 X94.636 Y124.506 E14.37764
G1 X94.858 Y123.631 E14.40766
G1 X95.157 Y122.778 E14.43772
G1 X95.529 Y121.956 E14.46773
G1 X95.897 Y121.293 E14.49295
G1 X97.26 Y119.039 E14.58056
G1 X97.791 Y118.099 E14.61647
G1 X98.491 Y116.886 E14.66305
G1 X98.976 Y116.124 E14.69309
G1 X99.527 Y115.409 E14.72312
G1 X99.832 Y115.063 E14.73846
G1 X99.953 Y114.932 E14.74439
G1 X100.165 Y114.709 E14.75462
G1 X100.492 Y114.377 E14.77012
G1 X102.003 Y112.866 E14.84119
G1 X102.567 Y112.318 E14.86735
G1 X102.767 Y112.129 E14.8765
G1 X103.61 Y111.353 E14.91461
G1 X103.969 Y111.032 E14.93063
G1 X105.84 Y109.263 E15.01627
G1 X107.626 Y107.474 E15.10035
G1 X109.386 Y105.61 E15.18561
G1 X110.133 Y104.782 E15.2227
G1 X110.495 Y104.394 E15.24035
G1 F2700 E10.24035
G0 F6000 X130.542 Y111.429
G0 X131.046 Y111.933
G0 X133.214 Y122.269
G1 F2700 E15.24035
G1 F1200 X133.308 Y122.237 E15.24366
G1 X133.368 Y122.318 E15.24701
G1 X133.308 Y122.399 E15.25036
G1 X133.214 Y122.367 E15.25366
G1 X133.214 Y122.269 E15.25692
G0 F6000 X132.874 Y122.022
G1 F1200 X133.128 Y121.837 E15.26738
G1 X133.438 Y121.837 E15.27769
G1 X133.692 Y122.022 E15.28814
G1 X133.789 Y122.318 E15.2985
G1 X133.692 Y122.614 E15.30886
G1 X133.438 Y122.799 E15.31931
G1 X133.128 Y122.799 E15.32962
G1 X132.874 Y122.614 E15.34007
G1 X132.777 Y122.318 E15.35043
G1 X132.874 Y122.022 E15.36079
G0 F6000 X132.534 Y121.774
G1 F1200 X132.997 Y121.437 E15.37984
G1 X133.569 Y121.437 E15.39886
G1 X134.032 Y121.774 E15.41791
G1 X134.209 Y122.318 E15.43694
G1 X134.032 Y122.862 E15.45596
G1 X133.569 Y123.199 E15.47501
G1 X132.997 Y123.199 E15.49404
G1 X132.534 Y122.862 E15.51308
G1 X132.357 Y122.318 E15.53211
G1 X132.534 Y121.774 E15.55114
G0 F6000 X132.193 Y121.528
G1 F1200 X132.868 Y121.037 E15.5789
G1 X133.698 Y121.037 E15.6065
G1 X134.373 Y121.528 E15.63427
G1 X134.63 Y122.318 E15.6619
G1 X134.373 Y123.108 E15.68953
G1 X133.698 Y123.599 E15.71729
G1 X132.868 Y123.599 E15.7449
G1 X132.193 Y123.108 E15.77266
G1 X131.936 Y122.318 E15.80029
G1 X132.193 Y121.528 E15.82792
G1 F2700 E10.82792
G0 F6000 X131.046 Y111.933
G0 X130.542 Y111.429
G0 X121.129 Y108.488
G0 X120.071 Y108.484
G0 X119.751 Y108.613
G0 X117.294 Y111.067
G0 X117.16 Y111.382
G0 X117.153 Y118.396
G0 X117.283 Y118.714
G0 X119.736 Y121.17
G0 X122.827 Y123.291
G1 F2700 E15.82792
G1 F1200 X122.589 Y124.02 E15.85343
G1 X121.7 Y124.659 E15.88984
G1 X120.836 Y124.659 E15.91858
G1 X120.135 Y124.149 E15.94741
G1 X119.867 Y123.328 E15.97613
G1 X120.135 Y122.507 E16.00486
G1 X120.836 Y121.997 E16.03369
G1 X121.706 Y121.997 E16.06263
G1 X122.591 Y122.567 E16.09764
G1 X122.827 Y123.291 E16.12297
G0 F6000 X122.406 Y123.291
G1 F1200 X122.25 Y123.771 E16.13975
G1 X121.571 Y124.259 E16.16757
G1 X120.965 Y124.259 E16.18772
G1 X120.475 Y123.902 E16.20788
G1 X120.288 Y123.328 E16.22796
G1 X120.475 Y122.754 E16.24804
G1 X120.965 Y122.397 E16.26821
G1 X121.588 Y122.397 E16.28893
G1 X122.255 Y122.827 E16.31532
G1 X122.406 Y123.291 E16.33155
G0 F6000 X121.985 Y123.291
G1 F1200 X121.909 Y123.523 E16.33967
G1 X121.442 Y123.859 E16.35881
G1 X121.095 Y123.859 E16.37035
G1 X120.816 Y123.656 E16.38182
G1 X120.709 Y123.328 E16.3933
G1 X120.816 Y123 E16.40477
G1 X121.095 Y122.797 E16.41625
G1 X121.469 Y122.797 E16.42869
G1 X121.918 Y123.087 E16.44647
G1 X121.985 Y123.291 E16.45361
G0 F6000 X121.524 Y123.308
G1 F1200 X121.313 Y123.459 E16.46224
G1 X121.226 Y123.459 E16.46513
